public/images/topics/invesco.svg

<?xml version="1.0" encoding="utf-8"?>
<!-- Generator: Adobe Illustrator 13.0.1, SVG Export Plug-In  -->
<!DOCTYPE svg PUBLIC "-//W3C//DTD SVG 1.1//EN" "http://www.w3.org/Graphics/SVG/1.1/DTD/svg11.dtd" [
	<!ENTITY ns_flows "http://ns.adobe.com/Flows/1.0/">
]>
<svg version="1.1"
	 xmlns="http://www.w3.org/2000/svg" xmlns:xlink="http://www.w3.org/1999/xlink" xmlns:a="http://ns.adobe.com/AdobeSVGViewerExtensions/3.0/"
	 x="0px" y="0px" width="48px" height="40px" viewBox="-0.66 -0.192 48 40" enable-background="new -0.66 -0.192 48 40"
	 xml:space="preserve">
<defs>
</defs>
<polyline fill="#FFFFFF" points="31.16,26.023 29.426,27.769 27.74,26.035 26.831,23.337 24.248,22.446 24.243,20.766 
	22.563,20.771 21.677,25.034 22.586,27.792 18.632,29.544 17.426,27.809 18.26,26.065 18.254,24.205 15.674,24.214 12.266,27.825 
	9.684,26.994 9.671,23.394 5.169,22.688 1.935,24.439 0.012,23.605 0,19.946 1.737,19.099 8.626,15.657 9.648,16.494 12.221,13.906 
	12.215,12.225 15.623,8.794 17.352,5.128 19.917,0.86 24.175,0.006 25.915,0 25.92,1.68 29.352,5.089 29.363,8.749 34.721,13.832 
	39.892,17.294 42.474,18.126 43.383,20.703 46.809,22.373 45.074,24.117 43.395,24.123 43.389,22.384 40.806,21.551 36.472,17.306 
	33.046,15.577 29.369,10.43 27.684,8.754 28.515,5.992 25.926,3.42 24.191,5.105 24.203,8.766 22.529,10.452 25.96,13.86 
	24.226,15.605 27.717,19.014 27.723,20.754 29.414,24.168 31.154,24.163 33.068,22.417 32.166,21.58 31.137,19.003 33.057,18.997 
	34.748,22.412 36.494,24.146 31.16,26.023 "/>
<polyline fill="#FFFFFF" points="0.064,39.565 0.034,30.445 1.951,29.599 1.984,39.56 0.064,39.565 "/>
<path fill="#FFFFFF" d="M9.904,39.533c-1.92,0.006-1.92,0.006-1.92,0.006c-0.014-3.961-0.014-3.961-0.014-3.961
	c-0.004-1.199-0.484-1.558-1.204-1.556c-0.84,0.003-1.199,0.365-1.195,1.564c0.013,3.96,0.013,3.96,0.013,3.96
	c-1.859,0.006-1.859,0.006-1.859,0.006C3.7,32.293,3.7,32.293,3.7,32.293c1.86-0.006,1.86-0.006,1.86-0.006
	c0.002,0.54,0.002,0.54,0.002,0.54c0.358-0.361,0.837-0.663,1.737-0.666c1.68-0.006,2.584,1.191,2.591,3.231"/>
<path fill="#FFFFFF" d="M17.62,32.247c-2.556,7.27-2.556,7.27-2.556,7.27c-1.92,0.006-1.92,0.006-1.92,0.006
	c-2.604-7.252-2.604-7.252-2.604-7.252c2.101-0.007,2.101-0.007,2.101-0.007c1.03,3.296,1.03,3.296,1.03,3.296
	c0.183,0.66,0.305,1.38,0.485,1.679c-0.001-0.3,0.178-1.021,0.354-1.682c1.01-3.303,1.01-3.303,1.01-3.303"/>
<path fill="#FFFFFF" d="M22.789,34.991c-0.182-0.66-0.544-1.198-1.384-1.196c-0.9,0.003-1.378,0.544-1.556,1.206 M21.604,39.614
	c-2.101,0.007-3.665-1.488-3.672-3.768c-0.008-2.221,1.547-3.726,3.467-3.732c2.04-0.006,3.246,1.67,3.253,3.71
	c0.001,0.359,0.001,0.359,0.002,0.72c-4.8,0.016-4.8,0.016-4.8,0.016c0.183,0.839,1.024,1.197,1.744,1.194
	c0.3-0.001,1.02-0.184,1.378-0.544c1.324,1.076,1.324,1.076,1.324,1.076C23.644,39.308,22.265,39.612,21.604,39.614z"/>
<path fill="#FFFFFF" d="M28.799,37.911c0.66-0.002,1.02-0.183,1.019-0.543c-0.002-0.479-0.662-0.658-1.022-0.657
	c-1.381-0.355-3.122-0.53-3.128-2.389c-0.004-1.38,1.373-2.226,2.933-2.23c1.021-0.003,2.041,0.294,2.764,0.832
	c-1.016,1.383-1.016,1.383-1.016,1.383c-0.541-0.358-1.202-0.536-1.742-0.534c-0.84,0.002-1.02,0.183-1.019,0.543
	c0.001,0.3,1.021,0.476,1.563,0.655c1.381,0.355,2.582,0.711,2.587,2.211c0.006,1.56-1.552,2.404-3.112,2.41
	c-1.2,0.004-2.221-0.472-3.123-1.009c1.076-1.204,1.076-1.204,1.076-1.204C27.238,37.736,27.959,37.914,28.799,37.911"/>
<path fill="#FFFFFF" d="M36.346,33.926c-1.02,0.003-1.857,0.846-1.854,1.866c0.003,1.08,0.847,1.917,1.866,1.914
	c0.72-0.002,1.198-0.364,1.557-0.845c1.564,1.194,1.564,1.194,1.564,1.194c-0.717,0.843-1.915,1.506-3.115,1.51
	c-2.04,0.006-3.785-1.667-3.792-3.767c-0.007-2.04,1.728-3.726,3.768-3.733c1.2-0.004,2.402,0.652,3.125,1.49
	c-1.557,1.205-1.557,1.205-1.557,1.205C37.547,34.283,37.065,33.924,36.346,33.926"/>
<path fill="#FFFFFF" d="M45.472,35.757c-0.003-1.021-0.726-1.858-1.746-1.855c-1.2,0.004-1.856,0.846-1.854,1.867
	c0.004,1.08,0.666,1.917,1.866,1.914C44.759,37.679,45.476,36.837,45.472,35.757 M47.332,35.75c0.007,2.1-1.487,3.784-3.588,3.791
	c-2.04,0.007-3.785-1.667-3.792-3.767c-0.007-2.04,1.728-3.727,3.768-3.733C45.82,32.035,47.325,33.71,47.332,35.75z"/>
</svg>

<?xml version="1.0" encoding="UTF-8"?>
<svg width="48px" height="40px" viewBox="0 0 48 40" version="1.1" xmlns="http://www.w3.org/2000/svg" xmlns:xlink="http://www.w3.org/1999/xlink">
    <!-- Generator: Sketch 43.2 (39069) - http://www.bohemiancoding.com/sketch -->
    <title>invesco</title>
    <desc>Created with Sketch.</desc>
    <defs></defs>
    <g id="Page-1" stroke="none" stroke-width="1" fill="none" fill-rule="evenodd">
        <g id="invesco" fill-rule="nonzero" fill="#000000">
            <polyline id="Shape" points="31.16 26.023 29.426 27.769 27.74 26.035 26.831 23.337 24.248 22.446 24.243 20.766 22.563 20.771 21.677 25.034 22.586 27.792 18.632 29.544 17.426 27.809 18.26 26.065 18.254 24.205 15.674 24.214 12.266 27.825 9.684 26.994 9.671 23.394 5.169 22.688 1.935 24.439 0.012 23.605 0 19.946 1.737 19.099 8.626 15.657 9.648 16.494 12.221 13.906 12.215 12.225 15.623 8.794 17.352 5.128 19.917 0.86 24.175 0.006 25.915 0 25.92 1.68 29.352 5.089 29.363 8.749 34.721 13.832 39.892 17.294 42.474 18.126 43.383 20.703 46.809 22.373 45.074 24.117 43.395 24.123 43.389 22.384 40.806 21.551 36.472 17.306 33.046 15.577 29.369 10.43 27.684 8.754 28.515 5.992 25.926 3.42 24.191 5.105 24.203 8.766 22.529 10.452 25.96 13.86 24.226 15.605 27.717 19.014 27.723 20.754 29.414 24.168 31.154 24.163 33.068 22.417 32.166 21.58 31.137 19.003 33.057 18.997 34.748 22.412 36.494 24.146 31.16 26.023"></polyline>
            <polyline id="Shape" points="0.064 39.565 0.034 30.445 1.951 29.599 1.984 39.56 0.064 39.565"></polyline>
            <path d="M9.904,39.533 L7.984,39.539 L7.97,35.578 C7.966,34.379 7.486,34.02 6.766,34.022 C5.926,34.025 5.567,34.387 5.571,35.586 L5.584,39.546 L3.725,39.552 L3.7,32.293 L5.56,32.287 L5.562,32.827 C5.92,32.466 6.399,32.164 7.299,32.161 C8.979,32.155 9.883,33.352 9.89,35.392" id="Shape"></path>
            <path d="M17.62,32.247 L15.064,39.517 L13.144,39.523 L10.54,32.271 L12.641,32.264 L13.671,35.56 C13.854,36.22 13.976,36.94 14.156,37.239 C14.155,36.939 14.334,36.218 14.51,35.557 L15.52,32.254" id="Shape"></path>
            <path d="M22.789,34.991 C22.607,34.331 22.245,33.793 21.405,33.795 C20.505,33.798 20.027,34.339 19.849,35.001 L22.789,34.991 Z M21.604,39.614 C19.503,39.621 17.939,38.126 17.932,35.846 C17.924,33.625 19.479,32.12 21.399,32.114 C23.439,32.108 24.645,33.784 24.652,35.824 C24.653,36.183 24.653,36.183 24.654,36.544 L19.854,36.56 C20.037,37.399 20.878,37.757 21.598,37.754 C21.898,37.753 22.618,37.57 22.976,37.21 L24.3,38.286 C23.644,39.308 22.265,39.612 21.604,39.614 Z" id="Shape"></path>
            <path d="M28.799,37.911 C29.459,37.909 29.819,37.728 29.818,37.368 C29.816,36.889 29.156,36.71 28.796,36.711 C27.415,36.356 25.674,36.181 25.668,34.322 C25.664,32.942 27.041,32.096 28.601,32.092 C29.622,32.089 30.642,32.386 31.365,32.924 L30.349,34.307 C29.808,33.949 29.147,33.771 28.607,33.773 C27.767,33.775 27.587,33.956 27.588,34.316 C27.589,34.616 28.609,34.792 29.151,34.971 C30.532,35.326 31.733,35.682 31.738,37.182 C31.744,38.742 30.186,39.586 28.626,39.592 C27.426,39.596 26.405,39.12 25.503,38.583 L26.579,37.379 C27.238,37.736 27.959,37.914 28.799,37.911" id="Shape"></path>
            <path d="M36.346,33.926 C35.326,33.929 34.489,34.772 34.492,35.792 C34.495,36.872 35.339,37.709 36.358,37.706 C37.078,37.704 37.556,37.342 37.915,36.861 L39.479,38.055 C38.762,38.898 37.564,39.561 36.364,39.565 C34.324,39.571 32.579,37.898 32.572,35.798 C32.565,33.758 34.3,32.072 36.34,32.065 C37.54,32.061 38.742,32.717 39.465,33.555 L37.908,34.76 C37.547,34.283 37.065,33.924 36.346,33.926" id="Shape"></path>
            <path d="M45.472,35.757 C45.469,34.736 44.746,33.899 43.726,33.902 C42.526,33.906 41.87,34.748 41.872,35.769 C41.876,36.849 42.538,37.686 43.738,37.683 C44.759,37.679 45.476,36.837 45.472,35.757 L45.472,35.757 Z M47.332,35.75 C47.339,37.85 45.845,39.534 43.744,39.541 C41.704,39.548 39.959,37.874 39.952,35.774 C39.945,33.734 41.68,32.047 43.72,32.041 C45.82,32.035 47.325,33.71 47.332,35.75 Z" id="Shape"></path>
        </g>
    </g>
</svg>
